X:120
T:ROWAPRN2- O gin my love were but a rose (Under her apron)
S:Scots Musical Museum, #562
Q:1/4=120
L:1/8
M:6/8
K:Cdorian
G2Gc2c|(B3/2A/) GG2F|G2Ge2e|B2df2f|g2f (ed) c|(BA) GG2F|\
G2G (cd) e|(dc) =Bc3||"Chorus"G2Gc2c|BA GG2F|G2G e3/2 f/ e|\
B2df3|g2f (ed) c|BA GG2F|G2G cd e|(dc) =Bc3|]

